SVG_Azure_Grouped/Application/App Scale Out.svg

<?xml version="1.0" encoding="UTF-8" standalone="no"?>
<!-- Generated by Microsoft Visio, SVG Export App Scale Out.svg Page-1 -->

<svg
   xmlns:dc="http://purl.org/dc/elements/1.1/"
   xmlns:cc="http://creativecommons.org/ns#"
   xmlns:rdf="http://www.w3.org/1999/02/22-rdf-syntax-ns#"
   xmlns:svg="http://www.w3.org/2000/svg"
   xmlns="http://www.w3.org/2000/svg"
   xmlns:sodipodi="http://sodipodi.sourceforge.net/DTD/sodipodi-0.dtd"
   xmlns:inkscape="http://www.inkscape.org/namespaces/inkscape"
   width="0.78740072in"
   height="0.78735882in"
   viewBox="0 0 56.692796 56.690003"
   xml:space="preserve"
   class="st6"
   version="1.1"
   id="svg55"
   sodipodi:docname="App Scale Out.svg"
   style="font-size:12px;overflow:visible;color-interpolation-filters:sRGB;fill:none;fill-rule:evenodd;stroke-linecap:square;stroke-miterlimit:3"
   inkscape:version="0.92.5 (2060ec1f9f, 2020-04-08)"><metadata
   id="metadata59"><rdf:RDF><cc:Work
       rdf:about=""><dc:format>image/svg+xml</dc:format><dc:type
         rdf:resource="http://purl.org/dc/dcmitype/StillImage" /></cc:Work></rdf:RDF></metadata><sodipodi:namedview
   pagecolor="#ffffff"
   bordercolor="#666666"
   borderopacity="1"
   objecttolerance="10"
   gridtolerance="10"
   guidetolerance="10"
   inkscape:pageopacity="0"
   inkscape:pageshadow="2"
   inkscape:window-width="640"
   inkscape:window-height="480"
   id="namedview57"
   showgrid="false"
   inkscape:zoom="1.4442774"
   inkscape:cx="37.795087"
   inkscape:cy="36.343628"
   inkscape:window-x="0"
   inkscape:window-y="0"
   inkscape:window-maximized="0"
   inkscape:current-layer="svg55" />
	<style
   type="text/css"
   id="style2">
	<![CDATA[
		.st1 {fill:url(#grad0-6);stroke:none;stroke-linecap:butt;stroke-width:31.8441}
		.st2 {fill:#003067;stroke:none;stroke-linecap:butt;stroke-width:31.8441}
		.st3 {fill:#5ea0ef;stroke:none;stroke-linecap:butt;stroke-width:31.8441}
		.st4 {fill:#76bc2d;stroke:none;stroke-linecap:butt;stroke-width:31.8441}
		.st5 {fill:url(#grad0-18);stroke:none;stroke-linecap:butt;stroke-width:31.8441}
		.st6 {fill:none;fill-rule:evenodd;font-size:12px;overflow:visible;stroke-linecap:square;stroke-miterlimit:3}
	]]>
	</style>

	<defs
   id="Patterns_And_Gradients">
		<linearGradient
   id="grad0-6"
   x1="0"
   y1="59.562105"
   x2="31.443889"
   y2="59.562105"
   gradientTransform="scale(0.74259262,1.3466334)"
   gradientUnits="userSpaceOnUse">
			<stop
   offset="0"
   stop-color="#b3b2b3"
   stop-opacity="1"
   id="stop4" />
			<stop
   offset="1"
   stop-color="#979797"
   stop-opacity="1"
   id="stop6" />
		</linearGradient>
		<linearGradient
   id="grad0-18"
   x1="0"
   y1="96.950791"
   x2="23.278972"
   y2="96.950791"
   gradientTransform="scale(0.98107077,1.0192945)"
   gradientUnits="userSpaceOnUse">
			<stop
   offset="0"
   stop-color="#6bb9f2"
   stop-opacity="1"
   id="stop9" />
			<stop
   offset="1"
   stop-color="#1b93eb"
   stop-opacity="1"
   id="stop11" />
		</linearGradient>
	</defs>
	<g
   id="g53"
   transform="translate(-31.844339,-31.8443)">
		<title
   id="title15">Page-1</title>
		<g
   id="group14825-1"
   transform="translate(31.8441,-34.0157)">
			<title
   id="title17">App Scale Out.14825</title>
			<g
   id="group14826-2">
				<title
   id="title19">g14</title>
				<g
   id="shape14827-3"
   transform="translate(6.46898,-7.70079)">
					<title
   id="title21">path2</title>
					<path
   d="M 23.35,121.34 A 1.28558,1.28189 0 0 1 22,122.55 H 1.35 A 1.28558,1.28189 0 0 1 0,121.34 V 81.43 A 1.28558,1.28189 0 0 1 1.35,80.21 H 22 a 1.28558,1.28189 0 0 1 1.35,1.22 z"
   class="st1"
   id="path23"
   inkscape:connector-curvature="0"
   style="fill:url(#grad0-6);stroke:none;stroke-width:31.84410095;stroke-linecap:butt" />
				</g>
				<g
   id="shape14828-7"
   transform="translate(9.88667,-31.8961)">
					<title
   id="title26">path4</title>
					<path
   d="m 0,119.76 a 2.67856,2.67087 0 0 1 2.53,-2.79 h 11.64 a 2.68172,2.67402 0 0 1 2.53,2.79 2.68172,2.67402 0 0 1 -2.53,2.79 H 2.54 A 2.67856,2.67087 0 0 1 0,119.76 Z m 0,-8.3 a 2.67856,2.67087 0 0 1 2.53,-2.79 h 11.64 a 2.68172,2.67402 0 0 1 2.53,2.79 2.68172,2.67402 0 0 1 -2.53,2.79 H 2.54 A 2.6754,2.66772 0 0 1 0,111.46 Z"
   class="st2"
   id="path28"
   inkscape:connector-curvature="0"
   style="fill:#003067;stroke:none;stroke-width:31.84410095;stroke-linecap:butt" />
				</g>
				<g
   id="shape14829-9"
   transform="translate(11.2796,-41.1181)">
					<title
   id="title31">circle6</title>
					<ellipse
   cx="1.87626"
   cy="120.682"
   rx="1.87626"
   ry="1.87087"
   class="st3"
   id="ellipse33"
   style="fill:#5ea0ef;stroke:none;stroke-width:31.84410095;stroke-linecap:butt" />
				</g>
				<g
   id="shape14830-11"
   transform="translate(11.2796,-32.8283)">
					<title
   id="title36">circle8</title>
					<ellipse
   cx="1.87626"
   cy="120.682"
   rx="1.87626"
   ry="1.87087"
   class="st3"
   id="ellipse38"
   style="fill:#5ea0ef;stroke:none;stroke-width:31.84410095;stroke-linecap:butt" />
				</g>
				<g
   id="shape14831-13">
					<title
   id="title41">path10</title>
					<path
   d="M 9,122.55 H 5.98 V 119.6 H 9 Z m 5.95,0 h -3.01 v -2.95 h 3.02 z m 5.95,0 h -3.01 v -2.95 h 3.02 z m 5.96,0 h -3.01 v -2.95 h 3.02 z m 5.96,0 h -3.01 v -2.95 h 3.01 z m 6.24,0 h -3.01 v -2.95 h 3.01 z M 0,119.6 h 2.96 v 2.95 H 0 Z m 0,-5.67 h 2.96 v 2.95 H 0 Z m 0,-5.92 h 2.96 v 2.95 H 0 Z m 2.96,-3.08 H 0 v -3.01 h 2.96 z m 0,-6.02 H 0 v -3 h 2.96 z m 0,-6.03 H 0 v -2.99 h 2.96 z m 0,-6.02 H 0 v -2.99 h 2.96 z m 0,-6.03 H 0 v -2.98 h 2.96 z m 0,-6.02 H 0 V 71.82 H 2.96 Z M 0,65.86 h 2.96 v 2.95 H 0 Z m 21.08,2.95 h -3.02 v -2.95 h 3.02 z m -6.04,0 h -3.01 v -2.95 h 3.01 z M 9,68.81 H 5.98 V 65.86 H 9 Z m 15.11,-2.95 h 2.97 v 2.95 h -2.97 z m 14.92,2.95 h -3.01 v -2.95 h 3.01 z m -5.92,0 h -3.02 v -2.95 h 3.02 z m 5.92,24.09 h -2.95 v -3.01 h 2.95 z m 0,6.01 H 36.08 V 95.9 h 2.95 z m 0,-12.33 h -2.95 v -3 h 2.95 z m 0,-6.02 h -2.95 v -3.01 h 2.95 z m 0,-6.02 h -2.95 v -3.01 h 2.95 z"
   class="st4"
   id="path43"
   inkscape:connector-curvature="0"
   style="fill:#76bc2d;stroke:none;stroke-width:31.84410095;stroke-linecap:butt" />
				</g>
				<g
   id="shape14832-15"
   transform="translate(33.8547,-0.0566929)">
					<title
   id="title46">path12</title>
					<path
   d="m 11.35,122.37 11.32,-11.29 a 0.581197,0.579528 -180 0 0 0,-0.81575 L 11.35,98.99 a 0.571721,0.570079 -180 0 0 -0.811781,0 0.565404,0.56378 -180 0 0 -0.170569,0.412598 L 10.36,106.03 a 0.581197,0.579528 0 0 1 -0.578039,0.57638 L 0.58,106.61 a 0.581197,0.579528 -180 0 0 -0.578039,0.57638 L 0,114.2 a 0.581197,0.579528 -180 0 0 0.578039,0.57638 L 9.79,114.78 a 0.57488,0.573228 0 0 1 0.578039,0.57323 L 10.37,121.97 a 0.57488,0.573228 -180 0 0 0.568563,0.57953 0.568563,0.566929 -180 0 0 0.40747,-0.18268 z"
   class="st5"
   id="path48"
   inkscape:connector-curvature="0"
   style="fill:url(#grad0-18);stroke:none;stroke-width:31.84410095;stroke-linecap:butt" />
				</g>
			</g>
		</g>
	</g>
</svg>

<?xml version="1.0" encoding="UTF-8" standalone="no"?>
<!DOCTYPE svg PUBLIC "-//W3C//DTD SVG 1.1//EN" "http://www.w3.org/Graphics/SVG/1.1/DTD/svg11.dtd">
<!-- Generated by Microsoft Visio, SVG Export App Scale Out.svg Page-1 -->
<svg xmlns="http://www.w3.org/2000/svg" xmlns:xlink="http://www.w3.org/1999/xlink" xmlns:ev="http://www.w3.org/2001/xml-events"
		width="1.67196in" height="1.70212in" viewBox="0 0 120.381 122.553" xml:space="preserve" color-interpolation-filters="sRGB"
		class="st6">
	<style type="text/css">
	<![CDATA[
		.st1 {fill:url(#grad0-6);stroke:none;stroke-linecap:butt;stroke-width:31.8441}
		.st2 {fill:#003067;stroke:none;stroke-linecap:butt;stroke-width:31.8441}
		.st3 {fill:#5ea0ef;stroke:none;stroke-linecap:butt;stroke-width:31.8441}
		.st4 {fill:#76bc2d;stroke:none;stroke-linecap:butt;stroke-width:31.8441}
		.st5 {fill:url(#grad0-18);stroke:none;stroke-linecap:butt;stroke-width:31.8441}
		.st6 {fill:none;fill-rule:evenodd;font-size:12px;overflow:visible;stroke-linecap:square;stroke-miterlimit:3}
	]]>
	</style>

	<defs id="Patterns_And_Gradients">
		<linearGradient id="grad0-6" x1="0" y1="0" x2="1" y2="0" gradientTransform="rotate(90 0.5 0.5)">
			<stop offset="0" stop-color="#b3b2b3" stop-opacity="1"/>
			<stop offset="1" stop-color="#979797" stop-opacity="1"/>
		</linearGradient>
		<linearGradient id="grad0-18" x1="0" y1="0" x2="1" y2="0" gradientTransform="rotate(115.68946114965 0.5 0.5)">
			<stop offset="0" stop-color="#6bb9f2" stop-opacity="1"/>
			<stop offset="1" stop-color="#1b93eb" stop-opacity="1"/>
		</linearGradient>
	</defs>
	<g>
		<title>Page-1</title>
		<g id="group14448-1" transform="translate(31.8441,-34.0157)">
			<title>App Scale Out.14448</title>
			<g id="group14449-2">
				<title>g14</title>
				<g id="shape14450-3" transform="translate(6.46898,-7.70079)">
					<title>path2</title>
					<path d="M23.35 121.34 A1.28558 1.28189 0 0 1 22 122.55 L1.35 122.55 A1.28558 1.28189 0 0 1 -0 121.34 L0 81.43
								 A1.28558 1.28189 0 0 1 1.35 80.21 L22 80.21 A1.28558 1.28189 0 0 1 23.35 81.43 L23.35 121.34 Z"
							class="st1"/>
				</g>
				<g id="shape14451-7" transform="translate(9.88667,-31.8961)">
					<title>path4</title>
					<path d="M0 119.76 A2.67856 2.67087 0 0 1 2.53 116.97 L14.17 116.97 A2.68172 2.67402 0 0 1 16.7 119.76 A2.68172
								 2.67402 0 0 1 14.17 122.55 L2.54 122.55 A2.67856 2.67087 0 0 1 0 119.76 ZM0 111.46 A2.67856 2.67087
								 0 0 1 2.53 108.67 L14.17 108.67 A2.68172 2.67402 0 0 1 16.7 111.46 A2.68172 2.67402 0 0 1 14.17
								 114.25 L2.54 114.25 A2.6754 2.66772 0 0 1 0 111.46 Z" class="st2"/>
				</g>
				<g id="shape14452-9" transform="translate(11.2796,-41.1181)">
					<title>circle6</title>
					<ellipse cx="1.87626" cy="120.682" rx="1.87626" ry="1.87087" class="st3"/>
				</g>
				<g id="shape14453-11" transform="translate(11.2796,-32.8283)">
					<title>circle8</title>
					<ellipse cx="1.87626" cy="120.682" rx="1.87626" ry="1.87087" class="st3"/>
				</g>
				<g id="shape14454-13">
					<title>path10</title>
					<path d="M9 122.55 L5.98 122.55 L5.98 119.6 L9 119.6 L9 122.55 ZM14.95 122.55 L11.94 122.55 L11.94 119.6 L14.96
								 119.6 L14.95 122.55 ZM20.9 122.55 L17.89 122.55 L17.89 119.6 L20.91 119.6 L20.9 122.55 ZM26.86 122.55
								 L23.85 122.55 L23.85 119.6 L26.87 119.6 L26.86 122.55 ZM32.82 122.55 L29.81 122.55 L29.81 119.6
								 L32.82 119.6 L32.82 122.55 ZM39.06 122.55 L36.05 122.55 L36.05 119.6 L39.06 119.6 L39.06 122.55
								 ZM0 119.6 L2.96 119.6 L2.96 122.55 L0 122.55 L0 119.6 ZM0 113.93 L2.96 113.93 L2.96 116.88 L0 116.88
								 L0 113.93 ZM0 108.01 L2.96 108.01 L2.96 110.96 L0 110.96 L0 108.01 ZM2.96 104.93 L0 104.93 L0 101.92
								 L2.96 101.92 L2.96 104.93 ZM2.96 98.91 L0 98.91 L0 95.91 L2.96 95.91 L2.96 98.91 ZM2.96 92.88 L0
								 92.88 L0 89.89 L2.96 89.89 L2.96 92.88 ZM2.96 86.86 L0 86.86 L0 83.87 L2.96 83.87 L2.96 86.86 ZM2.96
								 80.83 L0 80.83 L0 77.85 L2.96 77.85 L2.96 80.83 ZM2.96 74.81 L0 74.81 L0 71.82 L2.96 71.82 L2.96
								 74.81 ZM0 65.86 L2.96 65.86 L2.96 68.81 L0 68.81 L0 65.86 ZM21.08 68.81 L18.06 68.81 L18.06 65.86
								 L21.08 65.86 L21.08 68.81 ZM15.04 68.81 L12.03 68.81 L12.03 65.86 L15.04 65.86 L15.04 68.81 ZM9
								 68.81 L5.98 68.81 L5.98 65.86 L9 65.86 L9 68.81 ZM24.11 65.86 L27.08 65.86 L27.08 68.81 L24.11 68.81
								 L24.11 65.86 ZM39.03 68.81 L36.02 68.81 L36.02 65.86 L39.03 65.86 L39.03 68.81 ZM33.11 68.81 L30.09
								 68.81 L30.09 65.86 L33.11 65.86 L33.11 68.81 ZM39.03 92.9 L36.08 92.9 L36.08 89.89 L39.03 89.89
								 L39.03 92.9 ZM39.03 98.91 L36.08 98.91 L36.08 95.9 L39.03 95.9 L39.03 98.91 ZM39.03 86.58 L36.08
								 86.58 L36.08 83.58 L39.03 83.58 L39.03 86.58 ZM39.03 80.56 L36.08 80.56 L36.08 77.55 L39.03 77.55
								 L39.03 80.56 ZM39.03 74.54 L36.08 74.54 L36.08 71.53 L39.03 71.53 L39.03 74.54 Z" class="st4"/>
				</g>
				<g id="shape14455-15" transform="translate(33.8547,-0.0566929)">
					<title>path12</title>
					<path d="M11.35 122.37 L22.67 111.08 a0.581197 0.579528 -180 0 0 3.55271E-15 -0.815748 L11.35 98.99 a0.571721
								 0.570079 -180 0 0 -0.811781 1.42109E-14 a0.565404 0.56378 -180 0 0 -0.170569 0.412598 L10.36 106.03
								 a0.581197 0.579528 0 0 1 -0.578039 0.576378 L0.58 106.61 a0.581197 0.579528 -180 0 0 -0.578039 0.576378
								 L0 114.2 a0.581197 0.579528 -180 0 0 0.578039 0.576378 L9.79 114.78 a0.57488 0.573228 0 0 1 0.578039
								 0.573228 L10.37 121.97 a0.57488 0.573228 -180 0 0 0.568563 0.579528 a0.568563 0.566929 -180 0 0
								 0.40747 -0.182677 Z" class="st5"/>
				</g>
			</g>
		</g>
	</g>
</svg>
